X: 30812
T: COTILLION No. 2. BALTIMORE SETT tune 5
%R: jig
B: Elias Howe "The Musician's Companion" Part 3 1844 p.81 #2
S: http://imslp.org/wiki/The_Musician's_Companion_(Howe,_Elias)
Z: 2015 John Chambers <jc:trillian.mit.edu>
M: 6/8
L: 1/8
K: Bb
% - - - - - - - - - - - - - - - - - - - - - - - - - - - - -
[|\
[a3B3] ecA | FAc e2d | dfB Bed | cdB F2z |\
g2B ecA | FAc e2d | dfB Bed | cBA B2 H|]
B/c/ |\
dBF Fgf | fed e2c | cAF Ffe | dBc d2B |\
BAB GEG | BAB cAc | dBd fed | cBA "^D.C."B2 |]
% - - - - - - - - - - Dance description - - - - - - - - - -
%%begintext align
%% Ladies forward and back,
%% gentlemen the same,
%% grand chain,
%% promenade all.
%%endtext
% - - - - - - - - - - - - - - - - - - - - - - - - - - - - -
%%sep 1 1 300
